actions/22x22-light/edit-table-insert-column-right.svg

<svg viewBox="0 0 22 22" xmlns="http://www.w3.org/2000/svg"><path d="m3 3v1 15h1 9v-1h-4v-2h4v-1h-4v-2h4 6v-1h-6-4v-2h4v-1h-4v-2h4v-1h-4v-1-1h4 6v-1h-6zm1 1h4v1 1h-1-3zm0 3h3 1v2h-4zm0 3h4v2h-4zm0 3h4v2h-1-3zm10 1v5l5-2.5zm-10 2h3 1v1.099609.900391h-4z" fill="#4d4d4d"/><path d="m13 3v1 5.2929688 2.7070312 1h6v-1-8-1zm1 1h4v .2929688l-4 4zm4 1.7070312v2.5859376l-3.707031 3.7070312h-.292969v-2.2929688zm0 4v2.2929688h-2.292969z" fill="#3daee9"/></svg>

<svg xmlns="http://www.w3.org/2000/svg" viewBox="0 0 22 22">
  <defs id="defs3051">
    <style type="text/css" id="current-color-scheme">
      .ColorScheme-Text {
        color:#4d4d4d;
      }
      .ColorScheme-Highlight {
        color:#3daee9;
      }
      </style>
  </defs>
 <path 
     style="fill:currentColor;fill-opacity:1;stroke:none" 
     d="M 3 3 L 3 4 L 3 19 L 4 19 L 13 19 L 13 18 L 9 18 L 9 16 L 13 16 L 13 15 L 9 15 L 9 13 L 13 13 L 19 13 L 19 12 L 13 12 L 9 12 L 9 10 L 13 10 L 13 9 L 9 9 L 9 7 L 13 7 L 13 6 L 9 6 L 9 5 L 9 4 L 13 4 L 19 4 L 19 3 L 13 3 L 3 3 z M 4 4 L 8 4 L 8 5 L 8 6 L 7 6 L 4 6 L 4 4 z M 4 7 L 7 7 L 8 7 L 8 9 L 4 9 L 4 7 z M 4 10 L 8 10 L 8 12 L 4 12 L 4 10 z M 4 13 L 8 13 L 8 15 L 7 15 L 4 15 L 4 13 z M 14 14 L 14 19 L 19 16.5 L 14 14 z M 4 16 L 7 16 L 8 16 L 8 17.099609 L 8 18 L 4 18 L 4 16 z "
     class="ColorScheme-Text"
     />
 <path 
     style="fill:currentColor;fill-opacity:1;stroke:none" 
     d="M 13 3 L 13 4 L 13 9.2929688 L 13 12 L 13 13 L 19 13 L 19 12 L 19 4 L 19 3 L 13 3 z M 14 4 L 18 4 L 18 4.2929688 L 14 8.2929688 L 14 4 z M 18 5.7070312 L 18 8.2929688 L 14.292969 12 L 14 12 L 14 9.7070312 L 18 5.7070312 z M 18 9.7070312 L 18 12 L 15.707031 12 L 18 9.7070312 z "
     class="ColorScheme-Highlight"
     />
</svg>
